X: 4432
M: 2/4
L: 1/16
K: G
(FG) |\
d^cBA ^GABc | d2f2"_D.C."d2 ::[K:=f]\
[K:C] !p!G2 |\
c6 G2 | c6 G2 | cBcd e2a2 | g2e2d2c2 |\
[1,3 d6 A2 | d6 A2 | d^cde f2d2 | B2d2A2 :|\
[2,4 A^GAB cBcd | e2a2g2f2 | e2G2e3d | c2e2"_D.C."c2 |]


